X: 08047
T: HATTIE'S HORNPIPE
C: Bob McQuillen 8 Oct 90
B: Bob's Note Book 8 #47
%R: hornpipe, reel
Z: 2021 John Chambers <jc:trillian.mit.edu>
M: C
L: 1/8
K: G
DE \
| G2GD B,DGB | GDB,G, EDGB | cBAG BAGE | DGBd ADEF |\
| G2GD B,DGB | GDB,G, EDGB | cBAG FAGE | D2G2 G2 :|
|: Bc \
| d2dB edBd | gedB AGEG | BdBG EDBd | egfe dcBA |\
| G2DB, CEDC | B,DGB cded | egdB cAFA | G2B2 G2 :|
%%begintext align
%% Did you know
%% that Hattie Andres is 20 days old today?
%% Well, she is! And don't think her proud parents,
%% Laurie and Sharon, aren't happy about that!
%% Hattie lives out in Seattle, WA, where her dad keeps
%% everybody happy with his wonderful accordion playing.
%%endtext

%%sep 1 1 500

%%sep 1 1 500

